Obsidian/actions/24s/tab-duplicate.svg

<svg height="24" viewBox="0 0 24 24" width="24" xmlns="http://www.w3.org/2000/svg"><path d="m4 1c-1.108 0-2 .892-2 2v4h-1v2h5v4h-1v2h10v-2h-1v-4c0-1.108-.892-2-2-2h-2v-4c0-1.108-.892-2-2-2z" fill="#bebebe" transform="translate(4 4)"/></svg>

<svg xmlns="http://www.w3.org/2000/svg" width="24" height="24" viewBox="0 0 24 24">
 <defs>
  <style id="current-color-scheme" type="text/css">
   .ColorScheme-Text { color:#bebebe; } .ColorScheme-Highlight { color:#4285f4; }
  </style>
 </defs>
 <path style="fill:currentColor" class="ColorScheme-Text" d="M 4 1 C 2.892 1 2 1.892 2 3 L 2 7 L 1 7 L 1 9 L 6 9 L 6 13 L 5 13 L 5 15 L 15 15 L 15 13 L 14 13 L 14 9 C 14 7.892 13.108 7 12 7 L 10 7 L 10 3 C 10 1.892 9.108 1 8 1 L 4 1 z" transform="translate(4 4)"/>
</svg>
